src/assets/outline/KeySquare.svg

<svg width="24" height="24" viewBox="0 0 24 24"  xmlns="http://www.w3.org/2000/svg">
<path d="M15 22.75H9C3.57 22.75 1.25 20.43 1.25 15V9C1.25 3.57 3.57 1.25 9 1.25H15C20.43 1.25 22.75 3.57 22.75 9V15C22.75 20.43 20.43 22.75 15 22.75ZM9 2.75C4.39 2.75 2.75 4.39 2.75 9V15C2.75 19.61 4.39 21.25 9 21.25H15C19.61 21.25 21.25 19.61 21.25 15V9C21.25 4.39 19.61 2.75 15 2.75H9Z" />
<path d="M8.81023 18.2498C8.74023 18.2498 8.66023 18.2498 8.59023 18.2298L7.40023 18.0698C6.68023 17.9698 6.05023 17.3498 5.94023 16.6098L5.77023 15.3998C5.70023 14.9198 5.90023 14.3098 6.25023 13.9498L8.53023 11.6698C8.19023 10.0498 8.68023 8.36982 9.87023 7.18982C11.7802 5.27982 14.9002 5.27982 16.8102 7.18982C17.7402 8.11982 18.2502 9.34982 18.2502 10.6598C18.2502 11.9698 17.7402 13.2098 16.8102 14.1298C15.6202 15.3098 13.9402 15.7998 12.3302 15.4598L10.0402 17.7398C9.75023 18.0498 9.26023 18.2498 8.81023 18.2498ZM13.3402 7.24982C12.4702 7.24982 11.5902 7.57982 10.9302 8.24982C10.0302 9.14982 9.71023 10.4598 10.0802 11.6798C10.1602 11.9498 10.0902 12.2298 9.89023 12.4298L7.31023 15.0098C7.29023 15.0398 7.25023 15.1498 7.25023 15.1898L7.42023 16.3898C7.43023 16.4498 7.54023 16.5598 7.60023 16.5698L8.80023 16.7398C8.85023 16.7298 8.95023 16.7098 8.98023 16.6798L11.5702 14.0898C11.7702 13.8898 12.0602 13.8298 12.3202 13.9098C13.5302 14.2898 14.8402 13.9698 15.7402 13.0698C16.3802 12.4298 16.7402 11.5698 16.7402 10.6598C16.7402 9.74982 16.3902 8.88982 15.7402 8.24982C15.0902 7.58982 14.2102 7.24982 13.3402 7.24982Z" />
<path d="M10.4498 17.0299C10.2598 17.0299 10.0698 16.9599 9.91978 16.8099L9.05979 15.9499C8.76979 15.6599 8.76979 15.1799 9.05979 14.8899C9.34979 14.5999 9.82978 14.5999 10.1198 14.8899L10.9798 15.7499C11.2698 16.0399 11.2698 16.5199 10.9798 16.8099C10.8398 16.9599 10.6498 17.0299 10.4498 17.0299Z" />
<path d="M13.3801 11.8001C13.2401 11.8001 13.1101 11.7801 12.9901 11.7301C12.8701 11.6801 12.7601 11.6001 12.6701 11.5101C12.4801 11.3201 12.3701 11.0701 12.3701 10.8001C12.3701 10.5401 12.4801 10.2801 12.6701 10.1001C12.9001 9.86012 13.2501 9.75012 13.5701 9.82012C13.6301 9.84012 13.7001 9.85012 13.7601 9.88012C13.8201 9.91012 13.8801 9.94012 13.9301 9.97012C13.9801 10.0101 14.0401 10.0501 14.0801 10.1001C14.2701 10.2801 14.3801 10.5401 14.3801 10.8001C14.3801 10.9401 14.3501 11.0601 14.3001 11.1901C14.2501 11.3101 14.1801 11.4201 14.0801 11.5101C13.8901 11.7001 13.6401 11.8001 13.3801 11.8001Z" />
</svg>

<?xml version="1.0" encoding="UTF-8"?>
<svg width="24" height="24" viewBox="0 0 24 24" xmlns="http://www.w3.org/2000/svg">
 <path d="m15 22.75h-6c-5.43 0-7.75-2.32-7.75-7.75v-6c0-5.43 2.32-7.75 7.75-7.75h6c5.43 0 7.75 2.32 7.75 7.75v6c0 5.43-2.32 7.75-7.75 7.75zm-6-20c-4.61 0-6.25 1.64-6.25 6.25v6c0 4.61 1.64 6.25 6.25 6.25h6c4.61 0 6.25-1.64 6.25-6.25v-6c0-4.61-1.64-6.25-6.25-6.25h-6z"/>
 <path d="m8.8102 18.25c-0.07 0-0.15 0-0.22-0.02l-1.19-0.16c-0.72-0.1-1.35-0.72-1.46-1.46l-0.17-1.21c-0.07-0.48 0.13-1.09 0.48-1.45l2.28-2.28c-0.34-1.62 0.15-3.3 1.34-4.48 1.91-1.91 5.03-1.91 6.94 0 0.93 0.93 1.44 2.16 1.44 3.47 0 1.31-0.51 2.55-1.44 3.47-1.19 1.18-2.87 1.67-4.48 1.33l-2.29 2.28c-0.28997 0.31-0.77997 0.51-1.23 0.51zm4.53-11c-0.87 0-1.75 0.33-2.41 1-0.9 0.9-1.22 2.21-0.85 3.43 0.08 0.27 0.01 0.55-0.18997 0.75l-2.58 2.58c-0.02 0.03-0.06 0.14-0.06 0.18l0.17 1.2c0.01 0.06 0.12 0.17 0.18 0.18l1.2 0.17c0.05-0.01 0.15-0.03 0.18-0.06l2.59-2.59c0.2-0.2 0.49-0.26 0.75-0.18 1.21 0.38 2.52 0.06 3.42-0.84 0.64-0.64 1-1.5 1-2.41 0-0.90998-0.35-1.77-1-2.41-0.65-0.66-1.53-1-2.4-1z"/>
 <path d="m10.45 17.03c-0.19 0-0.38-0.07-0.53002-0.22l-0.85999-0.86c-0.29-0.29-0.29-0.77 0-1.06s0.76999-0.29 1.06 0l0.86 0.86c0.29 0.29 0.29 0.77 0 1.06-0.14 0.15-0.33 0.22-0.53 0.22z"/>
 <path d="m13.38 11.8c-0.14 0-0.27-0.02-0.39-0.07s-0.23-0.13-0.32-0.22c-0.19-0.19-0.3-0.44-0.3-0.71 0-0.26 0.11-0.52 0.3-0.7 0.23-0.23998 0.58-0.34998 0.9-0.27998 0.06 0.02 0.13 0.03 0.19 0.06s0.12 0.06 0.17 0.09c0.05 0.03998 0.11 0.07998 0.15 0.12998 0.19 0.18 0.3 0.44 0.3 0.7 0 0.14-0.03 0.26-0.08 0.39-0.05 0.12-0.12 0.23-0.22 0.32-0.19 0.19-0.44 0.29-0.7 0.29z"/>
</svg>
